src/assets/icons/svg/product-management.svg

<?xml version="1.0" standalone="no"?><!DOCTYPE svg PUBLIC "-//W3C//DTD SVG 1.1//EN" "http://www.w3.org/Graphics/SVG/1.1/DTD/svg11.dtd"><svg t="1684217818563" class="icon" viewBox="0 0 1024 1024" version="1.1" xmlns="http://www.w3.org/2000/svg" p-id="8318" xmlns:xlink="http://www.w3.org/1999/xlink" width="128" height="128"><path d="M443.499757 0.539023h-409.384391a34.115366 34.115366 0 0 0-34.115366 34.115366v409.384391a34.115366 34.115366 0 0 0 34.115366 34.115365h409.384391a34.115366 34.115366 0 0 0 34.115366-34.115365v-409.384391a34.115366 34.115366 0 0 0-34.115366-34.115366zM409.384391 409.923414H68.230732V68.769755h341.153659zM443.499757 546.384877h-409.384391a34.115366 34.115366 0 0 0-34.115366 34.115366v409.384391a34.115366 34.115366 0 0 0 34.115366 34.115366h409.384391a34.115366 34.115366 0 0 0 34.115366-34.115366v-409.384391a34.115366 34.115366 0 0 0-34.115366-34.115366zM409.384391 955.769268H68.230732V614.615609h341.153659zM760.77266 467.919536a34.115366 34.115366 0 0 0 48.443819 0l204.692196-204.692196a34.115366 34.115366 0 0 0 0-48.443819l-204.692196-204.692196a34.115366 34.115366 0 0 0-48.443819 0l-204.692196 204.692196a34.115366 34.115366 0 0 0 0 48.443819z m23.880756-385.503635l156.248376 156.930683-156.248376 156.248376L628.40504 239.346584zM989.345611 546.384877h-409.384391a34.115366 34.115366 0 0 0-34.115365 34.115366v409.384391a34.115366 34.115366 0 0 0 34.115365 34.115366h409.384391a34.115366 34.115366 0 0 0 34.115366-34.115366v-409.384391a34.115366 34.115366 0 0 0-34.115366-34.115366z m-34.115366 409.384391H614.076586V614.615609h341.153659z" fill="#666666" p-id="8319"></path></svg>

<svg xmlns="http://www.w3.org/2000/svg" width="128" height="128" class="icon" viewBox="0 0 1024 1024"><path fill="#666" d="M443.5.539H34.115A34.115 34.115 0 0 0 0 34.654V444.04a34.115 34.115 0 0 0 34.115 34.115H443.5a34.115 34.115 0 0 0 34.115-34.115V34.654A34.115 34.115 0 0 0 443.5.54zm-34.116 409.384H68.231V68.77h341.153zM443.5 546.385H34.115A34.115 34.115 0 0 0 0 580.5v409.385A34.115 34.115 0 0 0 34.115 1024H443.5a34.115 34.115 0 0 0 34.115-34.115V580.5a34.115 34.115 0 0 0-34.115-34.115zm-34.116 409.384H68.231V614.616h341.153zm351.389-487.85a34.115 34.115 0 0 0 48.443 0l204.693-204.692a34.115 34.115 0 0 0 0-48.443L809.216 10.09a34.115 34.115 0 0 0-48.443 0L556.08 214.784a34.115 34.115 0 0 0 0 48.443zm23.88-385.503 156.249 156.93-156.249 156.249-156.248-156.248zm204.693 463.969H579.96a34.115 34.115 0 0 0-34.115 34.115v409.385A34.115 34.115 0 0 0 579.96 1024h409.385a34.115 34.115 0 0 0 34.115-34.115V580.5a34.115 34.115 0 0 0-34.115-34.115zM955.23 955.769H614.077V614.616H955.23z"/></svg>
